public/images/contact/download.svg

<svg fill="none" height="46" viewBox="0 0 35 46" width="35" xmlns="http://www.w3.org/2000/svg"><path d="m33.043 8.19531c1.0781 1.07813 1.707 2.51559 1.707 4.04299v27.7617c0 3.2344-2.6055 5.75-5.75 5.75h-23c-3.23438 0-5.75-2.5156-5.75-5.75v-34.5c0-3.14453 2.51562-5.75 5.75-5.75h16.2617c1.5274 0 2.9649.628906 4.043 1.70703zm-2.6055 31.80469h-.0898v-25.875h-7.0977c-1.6172 0-2.875-1.2578-2.875-2.875v-7.09766h-14.375c-.80859 0-1.4375.62891-1.4375 1.4375v34.41016c0 .8086.62891 1.4375 1.4375 1.4375h23c.7188 0 1.4375-.6289 1.4375-1.4375zm-21.5625-15.0938c0-1.1679.89844-2.1562 2.1562-2.1562h12.9376c1.1679 0 2.1562.9883 2.1562 2.1562 0 1.2579-.9883 2.1563-2.1562 2.1563h-12.9376c-1.25776 0-2.1562-.8984-2.1562-2.1563zm15.0938 6.4688c1.1679 0 2.1562.9883 2.1562 2.1562 0 1.2579-.9883 2.1563-2.1562 2.1563h-12.9376c-1.25776 0-2.1562-.8984-2.1562-2.1563 0-1.1679.89844-2.1562 2.1562-2.1562z" fill="#fff"/></svg>

<svg width="35" height="46" viewBox="0 0 35 46" fill="none" xmlns="http://www.w3.org/2000/svg">
<path d="M33.043 8.19531C34.1211 9.27344 34.75 10.7109 34.75 12.2383V40C34.75 43.2344 32.1445 45.75 29 45.75H6C2.76562 45.75 0.25 43.2344 0.25 40V5.5C0.25 2.35547 2.76562 -0.25 6 -0.25H22.2617C23.7891 -0.25 25.2266 0.378906 26.3047 1.45703L33.043 8.19531ZM30.4375 40H30.3477V14.125H23.25C21.6328 14.125 20.375 12.8672 20.375 11.25V4.15234H6C5.19141 4.15234 4.5625 4.78125 4.5625 5.58984V40C4.5625 40.8086 5.19141 41.4375 6 41.4375H29C29.7188 41.4375 30.4375 40.8086 30.4375 40ZM8.875 24.9062C8.875 23.7383 9.77344 22.75 11.0312 22.75H23.9688C25.1367 22.75 26.125 23.7383 26.125 24.9062C26.125 26.1641 25.1367 27.0625 23.9688 27.0625H11.0312C9.77344 27.0625 8.875 26.1641 8.875 24.9062ZM23.9688 31.375C25.1367 31.375 26.125 32.3633 26.125 33.5312C26.125 34.7891 25.1367 35.6875 23.9688 35.6875H11.0312C9.77344 35.6875 8.875 34.7891 8.875 33.5312C8.875 32.3633 9.77344 31.375 11.0312 31.375H23.9688Z" fill="white"/>
</svg>
